X: 6
T:The Holly and the Ivy
% Nottingham Music Database
S:Trad Sussex
M:3/4
L:1/4
K:D
K:F
=F\
P:And
d\
P:the
e|\
P:ri-
"D"fe\
P:-sing
d|\
P:of
"A7"Ad\
P:the
e|\
P:sun
"D"d3-|"D"d\
P:and
a
P:the
a|\
P:run-
"D"af\
P:-ning
d|\
P:of
"E7"e2\
P:the
f|\
P:deer
"A7"e3-|"A7"e2\
P:the
a|\
P:play-
"D"a2\
P:-ing
f|
P:of
"D7"fe\
P:the
f|\
P:mer-
"G"g\
P:-ry
g\
P:or-
g|\
P:-gan
"Gm"g2\
P:sweet
g|\
P:sing-
"D"f\
P:-ing
e\
P:all
d|\
P:in
"A7"ed
P:the
c|\
P:choir
"D"d3-|"D"d||


